svg/icon/ary.svg

<svg xmlns="http://www.w3.org/2000/svg" xmlns:xlink="http://www.w3.org/1999/xlink" width="32" height="32" viewBox="0 0 32 32"><defs><linearGradient id="ary-c" x1="50%" x2="50%" y1="0%" y2="100%"><stop offset="0%" stop-color="#FFF" stop-opacity=".5"/><stop offset="100%" stop-opacity=".5"/></linearGradient><circle id="ary-b" cx="16" cy="15" r="15"/><filter id="ary-a" width="111.7%" height="111.7%" x="-5.8%" y="-4.2%" filterUnits="objectBoundingBox"><feOffset dy=".5" in="SourceAlpha" result="shadowOffsetOuter1"/><feGaussianBlur in="shadowOffsetOuter1" result="shadowBlurOuter1" stdDeviation=".5"/><feComposite in="shadowBlurOuter1" in2="SourceAlpha" operator="out" result="shadowBlurOuter1"/><feColorMatrix in="shadowBlurOuter1" values="0 0 0 0 0 0 0 0 0 0 0 0 0 0 0 0 0 0 0.199473505 0"/></filter><path id="ary-e" d="M23.9167628,20.1103303 C24.2763444,19.983837 24.5119324,19.642305 24.4871337,19.2501757 L24.4871337,20.3506676 C24.4871337,20.7301476 24.2515457,21.0843289 23.8919641,21.2108222 L16.303551,23.943078 C16.1175605,24.018974 15.9067713,24.018974 15.7083814,23.943078 L8.11996838,21.2108222 C7.76038672,21.0843289 7.52479874,20.7427969 7.52479874,20.3506676 L7.52479874,19.2501757 C7.52479874,19.6296557 7.76038672,19.983837 8.11996838,20.1103303 L15.7331801,22.8425861 C15.9191706,22.9184821 16.1299599,22.9184821 16.3283498,22.8425861 L23.9167628,20.1103303 Z M23.9167628,18.1623331 C24.2763444,18.0231904 24.5119324,17.6816585 24.4871337,17.3021785 L24.4871337,18.4026704 C24.4871337,18.7821504 24.2515457,19.1363317 23.8919641,19.262825 L16.303551,21.9950808 C16.1175605,22.0709768 15.9067713,22.0709768 15.7083814,21.9950808 L8.11996838,19.262825 C7.76038672,19.1363317 7.52479874,18.7947997 7.52479874,18.4026704 L7.52479874,17.2895292 C7.52479874,17.6816585 7.76038672,18.0231904 8.11996838,18.1623331 L15.7331801,20.8945889 C15.9191706,20.9704849 16.1299599,20.9704849 16.3283498,20.8945889 L23.9167628,18.1623331 Z M23.9167628,16.2016866 C24.2763444,16.0751933 24.5119324,15.7210119 24.4995331,15.3541813 L24.4995331,16.4546732 C24.4995331,16.8341532 24.2639451,17.1883345 23.9043634,17.3148278 L16.3159504,20.0470836 C16.1299599,20.1229796 15.9191706,20.1229796 15.7207808,20.0470836 L8.11996838,17.3021785 C7.76038672,17.1756852 7.52479874,16.8341532 7.52479874,16.4420239 L7.52479874,15.341532 C7.52479874,15.7210119 7.76038672,16.0751933 8.11996838,16.2016866 L15.7331801,18.9339424 C15.9191706,19.0098384 16.1299599,19.0098384 16.3283498,18.9339424 L23.9167628,16.2016866 Z M7.5,9.66198173 C7.5,9.26985242 7.73558799,8.92832045 8.09516965,8.80182713 L15.695982,6.056922 C15.8819725,5.981026 16.0927618,5.981026 16.2911517,6.056922 L23.8919641,8.80182713 C24.2515457,8.92832045 24.4871337,9.26985242 24.4871337,9.66198173 L24.4871337,14.4940267 C24.4871337,14.8735067 24.2515457,15.227688 23.8919641,15.3541813 L16.2787523,18.0864371 C16.0927618,18.1623331 15.8819725,18.1623331 15.6835827,18.0864371 L8.09516965,15.3541813 C7.73558799,15.227688 7.5,14.886156 7.5,14.4940267 L7.5,9.66198173 Z"/><filter id="ary-d" width="120.6%" height="119.4%" x="-10.3%" y="-6.9%" filterUnits="objectBoundingBox"><feOffset dy=".5" in="SourceAlpha" result="shadowOffsetOuter1"/><feGaussianBlur in="shadowOffsetOuter1" result="shadowBlurOuter1" stdDeviation=".5"/><feColorMatrix in="shadowBlurOuter1" values="0 0 0 0 0 0 0 0 0 0 0 0 0 0 0 0 0 0 0.204257246 0"/></filter></defs><g fill="none" fill-rule="evenodd"><g fill-rule="nonzero"><use fill="#000" filter="url(#ary-a)" xlink:href="#ary-b"/><use fill="#343434" fill-rule="evenodd" xlink:href="#ary-b"/><use fill="url(#ary-c)" fill-rule="evenodd" style="mix-blend-mode:soft-light" xlink:href="#ary-b"/><circle cx="16" cy="15" r="14.5" stroke="#000" stroke-opacity=".097"/></g><g fill-rule="nonzero"><use fill="#000" filter="url(#ary-d)" xlink:href="#ary-e"/><use fill="#FFF" fill-rule="evenodd" xlink:href="#ary-e"/></g></g></svg>

<svg xmlns="http://www.w3.org/2000/svg" xmlns:xlink="http://www.w3.org/1999/xlink" width="32" height="32" viewBox="0 0 32 32"><defs><linearGradient id="c" x1="50%" x2="50%" y1="0%" y2="100%"><stop offset="0%" stop-color="#FFF" stop-opacity=".5"/><stop offset="100%" stop-opacity=".5"/></linearGradient><circle id="b" cx="16" cy="15" r="15"/><filter id="a" width="111.7%" height="111.7%" x="-5.8%" y="-4.2%" filterUnits="objectBoundingBox"><feOffset dy=".5" in="SourceAlpha" result="shadowOffsetOuter1"/><feGaussianBlur in="shadowOffsetOuter1" result="shadowBlurOuter1" stdDeviation=".5"/><feComposite in="shadowBlurOuter1" in2="SourceAlpha" operator="out" result="shadowBlurOuter1"/><feColorMatrix in="shadowBlurOuter1" values="0 0 0 0 0 0 0 0 0 0 0 0 0 0 0 0 0 0 0.199473505 0"/></filter><path id="e" d="M23.917 20.11a.848.848 0 0 0 .57-.86v1.1a.91.91 0 0 1-.595.86l-7.588 2.733a.806.806 0 0 1-.596 0L8.12 21.211a.9.9 0 0 1-.595-.86v-1.1c0 .379.235.733.595.86l7.613 2.732a.806.806 0 0 0 .595 0l7.589-2.733zm0-1.948a.867.867 0 0 0 .57-.86v1.1a.91.91 0 0 1-.595.86l-7.588 2.733a.806.806 0 0 1-.596 0L8.12 19.263a.9.9 0 0 1-.595-.86V17.29c0 .392.235.733.595.872l7.613 2.733a.806.806 0 0 0 .595 0l7.589-2.733zm0-1.96a.88.88 0 0 0 .583-.848v1.1a.91.91 0 0 1-.596.86l-7.588 2.733a.806.806 0 0 1-.595 0L8.12 17.302a.9.9 0 0 1-.595-.86v-1.1c0 .379.235.733.595.86l7.613 2.732a.806.806 0 0 0 .595 0l7.589-2.732zM7.5 9.662a.9.9 0 0 1 .595-.86l7.601-2.745a.806.806 0 0 1 .595 0l7.601 2.745a.9.9 0 0 1 .595.86v4.832a.91.91 0 0 1-.595.86l-7.613 2.732a.806.806 0 0 1-.595 0l-7.589-2.732a.9.9 0 0 1-.595-.86V9.662z"/><filter id="d" width="120.6%" height="119.4%" x="-10.3%" y="-6.9%" filterUnits="objectBoundingBox"><feOffset dy=".5" in="SourceAlpha" result="shadowOffsetOuter1"/><feGaussianBlur in="shadowOffsetOuter1" result="shadowBlurOuter1" stdDeviation=".5"/><feColorMatrix in="shadowBlurOuter1" values="0 0 0 0 0 0 0 0 0 0 0 0 0 0 0 0 0 0 0.204257246 0"/></filter></defs><g fill="none"><use fill="#000" filter="url(#a)" xlink:href="#b"/><use fill="#343434" fill-rule="evenodd" xlink:href="#b"/><use fill="url(#c)" fill-rule="evenodd" style="mix-blend-mode:soft-light" xlink:href="#b"/><circle cx="16" cy="15" r="14.5" stroke="#000" stroke-opacity=".097"/><use fill="#000" filter="url(#d)" xlink:href="#e"/><use fill="#FFF" fill-rule="evenodd" xlink:href="#e"/></g></svg>
